X:39
T:Pillows of the Dead (Tangiwai Disaster)
M:c
C:John Archer
Q:120
L:1/4
K:C
z&quot;Dorian mode&quot; A,/A,/|D D D3/2 E/ | F D D/E/ F | E3/2 C/ C/D/ E | D2 z |
W:I    was  twelve years old  that   Christmas mo-or-ning  nine  - teen  fi - if - ty   -   three
F/G/ |A A/A/ A  c | G G E3/2 z/8 C3/8| F3/2 F/ F G/F/| E2 z |
W:A-and     San - ta had come, or    dad and mum,         what        would    our  pre-se-ents       be 
F/G/| A A A  A/c/ | G/F/ E2 E/E/ | F3/2 F/ F G/F/|E3 |
W:And my      pil-low case wa - as         bu-ul- ging, Full of       pre   -   sents, by my- y         bed . . .
D/E/| F3/2 F/ F G | E3/2  F/ E/D/ C/E/ |D3 z ||
W:Then the         ri      -     ver brought those    pil    -     lows   o  -  of    th  -  e          dead.
